X:573
T:Kitty Got A Clinking Coming From The Races
C:Joe Buchanan's Scottish Tome - Page 154.3
I:154 3
Z:Carl Allison
R:Reel
L:1/8
M:4/4
K:D
AG | FDFA d2 dc | BABc d2 d2 | FAAB d2 dB | AAF E2 D2 |
FDFA d2 dc | BABc d2 d2 | FAAd BcdB | AGDF E2 D2 |
FAAd BGGB | AFFA G2 E2 | FAAd BGGB | AFDF E2 D2 |
FAAd BGGB | AFFA GE E2 | FAAd BcdB | AFDF E2 D2 |]

